Pods/ProtonCore-UIFoundations/libraries/UIFoundations/Sources/Assets.xcassets/Images/IconSet/ic-envelope-open.imageset/ic-envelope-open.svg

<svg width="24" height="24" viewBox="0 0 24 24" fill="none" xmlns="http://www.w3.org/2000/svg">
<path fill-rule="evenodd" clip-rule="evenodd" d="M21 12.2918V17.6999C21 18.5648 20.9988 19.1232 20.9641 19.5482C20.9308 19.9557 20.8743 20.1068 20.8365 20.1809C20.6927 20.4632 20.4632 20.6926 20.181 20.8364C20.1068 20.8742 19.9557 20.9307 19.5482 20.964C19.1232 20.9988 18.5648 20.9999 17.7 20.9999H6.3C5.43517 20.9999 4.87676 20.9988 4.45175 20.964C4.04426 20.9307 3.89318 20.8742 3.81901 20.8364C3.53677 20.6926 3.3073 20.4632 3.16349 20.1809C3.1257 20.1068 3.06918 19.9557 3.03589 19.5482C3.00117 19.1232 3 18.5648 3 17.6999V12.2918L10.8199 17.1191C11.5435 17.5657 12.4565 17.5657 13.1801 17.1191L21 12.2918ZM20.9943 10.5326L12.3922 15.8427C12.1516 15.9912 11.8484 15.9912 11.6078 15.8427L3.00573 10.5326C3.01299 10.2188 3.0279 10.1082 3.05474 10.0116C3.10324 9.83709 3.18295 9.67278 3.29001 9.52664C3.38252 9.40038 3.51978 9.27585 4.25727 8.69459L9.95727 4.20206C10.505 3.77036 10.8539 3.49656 11.1371 3.30491C11.4047 3.12386 11.5302 3.07536 11.6043 3.0551C11.8633 2.98424 12.1367 2.98424 12.3957 3.0551C12.4698 3.07536 12.5953 3.12386 12.8629 3.30491C13.1461 3.49656 13.495 3.77036 14.0427 4.20206L19.7427 8.69459C20.4802 9.27585 20.6175 9.40038 20.71 9.52664C20.8171 9.67278 20.8968 9.83709 20.9453 10.0116C20.9721 10.1082 20.987 10.2188 20.9943 10.5326ZM1.5 11.2864C1.5 10.4316 1.5 10.0042 1.60948 9.6101C1.70647 9.26101 1.86589 8.93238 2.08003 8.64012C2.32175 8.3102 2.65742 8.04564 3.32874 7.51652L3.32875 7.51651L9.02875 3.02399C10.0904 2.18726 10.6212 1.76889 11.2085 1.60825C11.7267 1.46652 12.2733 1.46652 12.7915 1.60825C13.3788 1.76889 13.9096 2.18726 14.9712 3.02399L20.6712 7.51651L20.6713 7.51652C21.3426 8.04564 21.6783 8.3102 21.92 8.64012C22.1341 8.93238 22.2935 9.26101 22.3905 9.6101C22.5 10.0042 22.5 10.4316 22.5 11.2864V17.6999C22.5 19.3801 22.5 20.2202 22.173 20.8619C21.8854 21.4264 21.4265 21.8853 20.862 22.173C20.2202 22.4999 19.3802 22.4999 17.7 22.4999H6.3C4.61984 22.4999 3.77976 22.4999 3.13803 22.173C2.57354 21.8853 2.1146 21.4264 1.82698 20.8619C1.5 20.2202 1.5 19.3801 1.5 17.6999V11.2864Z" fill="#0C0C14"/>
</svg>

<svg xmlns="http://www.w3.org/2000/svg" width="24" height="24" viewBox="0 0 24 24">
  <g class="ic-envelope-open">
    <path fill-rule="evenodd" d="M21 12.292V17.7c0 .865-.001 1.423-.036 1.848-.033.408-.09.559-.127.633a1.5 1.5 0 0 1-.656.655c-.074.038-.225.095-.633.128-.425.035-.983.036-1.848.036H6.3c-.865 0-1.423-.001-1.848-.036-.408-.033-.559-.09-.633-.128a1.5 1.5 0 0 1-.656-.655c-.037-.074-.094-.225-.127-.633C3 19.123 3 18.565 3 17.7v-5.408l7.82 4.827a2.246 2.246 0 0 0 2.36 0L21 12.292Zm-.006-1.76-8.602 5.31a.746.746 0 0 1-.784 0l-8.602-5.31c.007-.313.022-.424.049-.52a1.5 1.5 0 0 1 .235-.485c.093-.127.23-.251.967-.832l5.7-4.493c.548-.432.897-.705 1.18-.897.268-.181.393-.23.467-.25a1.5 1.5 0 0 1 .792 0c.074.02.2.069.467.25.283.192.632.465 1.18.897l5.7 4.493c.737.58.875.705.967.832a1.5 1.5 0 0 1 .235.485c.027.096.042.207.05.52ZM1.5 11.287c0-.854 0-1.282.11-1.676a3 3 0 0 1 .47-.97c.242-.33.577-.594 1.249-1.123l5.7-4.493c1.061-.837 1.592-1.255 2.18-1.416a3 3 0 0 1 1.582 0c.588.16 1.119.58 2.18 1.416l5.7 4.493c.672.529 1.007.793 1.249 1.123a3 3 0 0 1 .47.97c.11.394.11.822.11 1.676V17.7c0 1.68 0 2.52-.327 3.162a3 3 0 0 1-1.311 1.311c-.642.327-1.482.327-3.162.327H6.3c-1.68 0-2.52 0-3.162-.327a3 3 0 0 1-1.311-1.311C1.5 20.22 1.5 19.38 1.5 17.7v-6.414Z" class="Icon"/>
  </g>
</svg>
